tools/download-figma-icons/icons/solid/single.svg

<svg width="24" height="24" viewBox="0 0 24 24" fill="none" xmlns="http://www.w3.org/2000/svg">
<path d="M18.2432 18.2913C18.1236 18.5048 17.8605 18.75 17.3183 18.75H6.68174C6.13955 18.75 5.87643 18.5048 5.75682 18.2913C5.39802 17.6744 5.86048 16.7254 6.09171 16.3141C6.23523 15.982 7.58273 13.1586 10.7561 12.5417C9.61595 11.9644 8.81064 10.612 8.81064 9.04613C8.81064 6.95035 10.2379 5.25 12 5.25C13.7621 5.25 15.1894 6.95035 15.1894 9.04613C15.1894 10.612 14.384 11.9644 13.2439 12.5417C16.4252 13.1507 17.7648 15.982 17.9083 16.3141C18.1395 16.7175 18.602 17.6744 18.2432 18.2913Z" fill="black"/>
</svg>

<svg width="24" height="24" viewBox="0 0 24 24" fill="none" xmlns="http://www.w3.org/2000/svg"><path d="M18.243 18.291c-.12.214-.383.459-.925.459H6.682c-.542 0-.806-.245-.925-.459-.359-.617.103-1.566.335-1.977.143-.332 1.49-3.155 4.664-3.772-1.14-.578-1.945-1.93-1.945-3.496C8.81 6.95 10.238 5.25 12 5.25s3.19 1.7 3.19 3.796c0 1.566-.806 2.918-1.946 3.496 3.181.609 4.52 3.44 4.664 3.772.232.404.694 1.36.335 1.977Z" fill="currentColor"/></svg>
